images/ven.svg

<svg height="250" viewBox="0 0 250 250" width="250" xmlns="http://www.w3.org/2000/svg" xmlns:xlink="http://www.w3.org/1999/xlink"><linearGradient id="a" gradientTransform="matrix(.124997 0 0 .132413 0 168.698147)" gradientUnits="userSpaceOnUse" x1="0" x2="2000.040039" y1="-330.01001" y2="-330.01001"><stop offset="0" stop-color="#9d4abe"/><stop offset=".03" stop-color="#9055c4"/><stop offset=".15" stop-color="#6b74d6"/><stop offset=".26" stop-color="#4c8fe5"/><stop offset=".39" stop-color="#34a3f0"/><stop offset=".52" stop-color="#22b2f9"/><stop offset=".66" stop-color="#18bafd"/><stop offset=".83" stop-color="#15bdff"/><stop offset="1" stop-color="#28bad5"/></linearGradient><filter id="b" height="100%" width="100%" x="0%" y="0%"><feColorMatrix in="SourceGraphic" type="matrix" values="0 0 0 0 1 0 0 0 0 1 0 0 0 0 1 0 0 0 1 0"/></filter><mask id="c"><g filter="url(#b)"><path d="m0 0h250v250h-250z" fill-opacity=".1"/></g></mask><clipPath id="d"><path d="m0 0h250v251h-250z"/></clipPath><mask id="e"><g filter="url(#b)"><path d="m0 0h250v250h-250z" fill-opacity=".1"/></g></mask><clipPath id="f"><path d="m0 0h250v251h-250z"/></clipPath><path d="m107.472656 238.746094-106.925781-230.703125c-1.734375-3.683594.875-8.03906275 4.726563-8.03906275h37.050781c1.984375 0 3.847656 1.19140575 4.722656 3.03124975l78.085937 167.371094c6.964844 15.015625 27.101563 15.015625 34.0625 0l77.835938-167.238281c.875-1.839844 2.738281-3.03125 4.726562-3.03125h4.597657c2.738281 0 4.476562 3.03125 3.238281 5.535156l-108.046875 233.074219c-6.964844 15-27.113281 15-34.074219 0zm0 0" fill="url(#a)"/><g clip-path="url(#d)" mask="url(#c)"><path d="m107.472656 238.746094-60.425781-235.578125c-.875-1.972657-2.863281-3.03125-4.472656-3.03125h-37.175781c-4.101563 0-6.460938 4.34375-4.851563 8.039062zm0 0" fill="#fff"/></g><g clip-path="url(#f)" mask="url(#e)"><path d="m125.132812 170.527344-124.585937-162.484375c-1.484375-3.816407.75-7.640625 4.226563-8.03906275h37.675781c2.109375.13281275 3.722656 1.57812475 4.472656 3.03124975zm0 0" fill="#fff"/></g></svg>

<svg xmlns="http://www.w3.org/2000/svg" xmlns:xlink="http://www.w3.org/1999/xlink" width="250px" height="250px" viewBox="0 0 250 250" version="1.1">
<defs>
<linearGradient id="linear0" gradientUnits="userSpaceOnUse" x1="0" y1="-330.01001" x2="2000.040039" y2="-330.01001" gradientTransform="matrix(0.124997,0,0,0.132413,0,168.698147)">
<stop offset="0" style="stop-color:rgb(61.56863%,29.019609%,74.509805%);stop-opacity:1;"/>
<stop offset="0.03" style="stop-color:rgb(56.470591%,33.333334%,76.862746%);stop-opacity:1;"/>
<stop offset="0.15" style="stop-color:rgb(41.960785%,45.490196%,83.92157%);stop-opacity:1;"/>
<stop offset="0.26" style="stop-color:rgb(29.803923%,56.078434%,89.803922%);stop-opacity:1;"/>
<stop offset="0.39" style="stop-color:rgb(20.392157%,63.921571%,94.117647%);stop-opacity:1;"/>
<stop offset="0.52" style="stop-color:rgb(13.333334%,69.803923%,97.647059%);stop-opacity:1;"/>
<stop offset="0.66" style="stop-color:rgb(9.411765%,72.941178%,99.215686%);stop-opacity:1;"/>
<stop offset="0.83" style="stop-color:rgb(8.235294%,74.117649%,100%);stop-opacity:1;"/>
<stop offset="1" style="stop-color:rgb(15.686275%,72.941178%,83.529413%);stop-opacity:1;"/>
</linearGradient>
<filter id="alpha" filterUnits="objectBoundingBox" x="0%" y="0%" width="100%" height="100%">
  <feColorMatrix type="matrix" in="SourceGraphic" values="0 0 0 0 1 0 0 0 0 1 0 0 0 0 1 0 0 0 1 0"/>
</filter>
<mask id="mask0">
  <g filter="url(#alpha)">
<rect x="0" y="0" width="250" height="250" style="fill:rgb(0%,0%,0%);fill-opacity:0.1;stroke:none;"/>
  </g>
</mask>
<clipPath id="clip1">
  <rect x="0" y="0" width="250" height="251"/>
</clipPath>
<g id="surface5" clip-path="url(#clip1)">
<path style=" stroke:none;fill-rule:nonzero;fill:rgb(100%,100%,100%);fill-opacity:1;" d="M 107.472656 238.746094 L 47.046875 3.167969 C 46.171875 1.195312 44.183594 0.136719 42.574219 0.136719 L 5.398438 0.136719 C 1.296875 0.136719 -1.0625 4.480469 0.546875 8.175781 Z M 107.472656 238.746094 "/>
</g>
<mask id="mask1">
  <g filter="url(#alpha)">
<rect x="0" y="0" width="250" height="250" style="fill:rgb(0%,0%,0%);fill-opacity:0.1;stroke:none;"/>
  </g>
</mask>
<clipPath id="clip2">
  <rect x="0" y="0" width="250" height="251"/>
</clipPath>
<g id="surface8" clip-path="url(#clip2)">
<path style=" stroke:none;fill-rule:nonzero;fill:rgb(100%,100%,100%);fill-opacity:1;" d="M 125.132812 170.527344 L 0.546875 8.042969 C -0.9375 4.226562 1.296875 0.402344 4.773438 0.00390625 L 42.449219 0.00390625 C 44.558594 0.136719 46.171875 1.582031 46.921875 3.035156 Z M 125.132812 170.527344 "/>
</g>
</defs>
<g id="surface1">
<path style=" stroke:none;fill-rule:nonzero;fill:url(#linear0);" d="M 107.472656 238.746094 L 0.546875 8.042969 C -1.1875 4.359375 1.421875 0.00390625 5.273438 0.00390625 L 42.324219 0.00390625 C 44.308594 0.00390625 46.171875 1.195312 47.046875 3.035156 L 125.132812 170.40625 C 132.097656 185.421875 152.234375 185.421875 159.195312 170.40625 L 237.03125 3.167969 C 237.90625 1.328125 239.769531 0.136719 241.757812 0.136719 L 246.355469 0.136719 C 249.09375 0.136719 250.832031 3.167969 249.59375 5.671875 L 141.546875 238.746094 C 134.582031 253.746094 114.433594 253.746094 107.472656 238.746094 Z M 107.472656 238.746094 "/>
<use xlink:href="#surface5" mask="url(#mask0)"/>
<use xlink:href="#surface8" mask="url(#mask1)"/>
</g>
</svg>
